flaticon/romance-lifestyle/padlock.svg

<svg xmlns="http://www.w3.org/2000/svg" width="32" height="32" viewBox="0 0 24 24">
    <path d="M 18.949219 8.71875 C 17.910156 7.558594 16.671875 6.960938 15.390625 6.960938 C 14.03125 6.960938 12.75 7.761719 11.988281 9.078125 C 11.230469 7.761719 9.988281 6.960938 8.628906 6.960938 C 7.351562 6.960938 6.148438 7.558594 5.070312 8.71875 C 3.828125 10.078125 3.109375 13.199219 5.589844 15.558594 C 6.671875 16.601562 11.710938 21.839844 11.75 21.921875 C 11.828125 22 11.910156 22.039062 12.03125 22.039062 C 12.148438 22.039062 12.230469 22 12.308594 21.921875 C 12.351562 21.878906 17.390625 16.640625 18.46875 15.558594 C 20.871094 13.199219 20.191406 10.078125 18.949219 8.71875 Z M 17.910156 14.960938 C 16.949219 15.878906 13.148438 19.878906 12.03125 21.039062 C 10.910156 19.878906 7.070312 15.878906 6.109375 14.960938 C 4.070312 13 4.628906 10.398438 5.671875 9.28125 C 6.550781 8.28125 7.550781 7.761719 8.628906 7.761719 C 9.910156 7.761719 11.070312 8.640625 11.628906 10.121094 C 11.671875 10.238281 11.828125 10.359375 11.988281 10.359375 C 12.148438 10.359375 12.308594 10.28125 12.351562 10.121094 C 12.949219 8.640625 14.109375 7.71875 15.390625 7.71875 C 16.46875 7.71875 17.46875 8.238281 18.351562 9.238281 C 19.390625 10.359375 19.949219 13 17.910156 14.960938 Z M 17.910156 14.960938"/>
    <path d="M 19.949219 7.800781 C 19.589844 7.398438 19.230469 7.078125 18.789062 6.761719 L 18.789062 5.199219 C 18.789062 4.960938 18.628906 4.800781 18.390625 4.800781 L 16.789062 4.800781 C 16.550781 4.800781 16.390625 4.960938 16.390625 5.199219 L 16.390625 5.679688 C 14.75 5.359375 13.191406 5.839844 11.988281 6.921875 C 11.070312 6.078125 9.871094 5.601562 8.628906 5.601562 C 8.429688 5.601562 8.230469 5.601562 8.03125 5.640625 L 8.03125 2.761719 C 8.03125 2.558594 8.230469 2.398438 8.429688 2.398438 L 16.148438 2.398438 C 16.308594 2.398438 16.429688 2.558594 16.429688 2.761719 L 16.429688 3.199219 C 16.429688 3.441406 16.589844 3.601562 16.828125 3.601562 L 18.429688 3.601562 C 18.671875 3.601562 18.828125 3.441406 18.828125 3.199219 L 18.828125 2.761719 C 18.828125 1.199219 17.628906 0 16.148438 0 L 8.429688 0 C 6.910156 0 5.628906 1.238281 5.671875 2.761719 L 5.671875 6.519531 C 5.109375 6.839844 4.589844 7.28125 4.109375 7.800781 C 2.148438 9.878906 1.828125 13.839844 4.671875 16.519531 C 5.75 17.558594 10.710938 22.800781 10.789062 22.839844 L 11.75 23.878906 C 11.828125 23.960938 11.910156 24 12.03125 24 C 12.148438 24 12.230469 23.960938 12.308594 23.878906 L 13.308594 22.839844 C 13.351562 22.800781 18.351562 17.558594 19.390625 16.519531 C 22.148438 13.839844 21.828125 9.921875 19.949219 7.800781 Z M 18.871094 15.960938 C 17.789062 17.039062 12.75 22.28125 12.710938 22.320312 L 12.03125 23.039062 L 11.351562 22.320312 C 11.269531 22.238281 6.269531 17 5.191406 15.960938 C 2.710938 13.640625 2.988281 10.199219 4.671875 8.359375 C 5.148438 7.839844 5.671875 7.398438 6.230469 7.078125 C 6.351562 7 6.429688 6.878906 6.429688 6.71875 L 6.429688 2.761719 C 6.429688 1.679688 7.351562 0.800781 8.429688 0.800781 L 16.148438 0.800781 C 17.191406 0.800781 18.03125 1.640625 18.03125 2.761719 L 18.03125 2.800781 L 17.230469 2.800781 L 17.230469 2.761719 C 17.230469 2.121094 16.75 1.601562 16.148438 1.601562 L 8.429688 1.601562 C 7.789062 1.601562 7.230469 2.121094 7.230469 2.761719 L 7.230469 6.121094 C 7.230469 6.238281 7.308594 6.359375 7.390625 6.441406 C 7.46875 6.519531 7.589844 6.558594 7.710938 6.519531 C 8.03125 6.441406 8.351562 6.398438 8.628906 6.398438 C 9.75 6.398438 10.871094 6.878906 11.710938 7.761719 C 11.789062 7.839844 11.871094 7.878906 11.988281 7.878906 C 12.109375 7.878906 12.191406 7.839844 12.269531 7.761719 C 13.148438 6.878906 14.230469 6.398438 15.390625 6.398438 C 15.828125 6.398438 16.269531 6.480469 16.710938 6.601562 C 16.828125 6.601562 16.949219 6.601562 17.070312 6.519531 C 17.191406 6.441406 17.230469 6.320312 17.230469 6.199219 L 17.230469 5.601562 L 18.03125 5.601562 L 18.03125 7 C 18.03125 7.121094 18.070312 7.238281 18.191406 7.320312 C 18.628906 7.601562 19.03125 7.960938 19.390625 8.359375 C 21.03125 10.199219 21.308594 13.601562 18.871094 15.960938 Z M 18.871094 15.960938"/>
    <path d="M 13.988281 13.238281 C 13.988281 12.121094 13.109375 11.238281 11.988281 11.238281 C 10.871094 11.238281 9.988281 12.121094 9.988281 13.238281 C 9.988281 13.800781 10.230469 14.320312 10.628906 14.679688 L 10.03125 17.121094 C 10.03125 17.238281 10.03125 17.359375 10.109375 17.441406 C 10.191406 17.558594 10.308594 17.601562 10.429688 17.601562 L 13.628906 17.601562 C 13.75 17.601562 13.871094 17.558594 13.871094 17.480469 C 13.949219 17.359375 13.988281 17.238281 13.949219 17.121094 L 13.351562 14.679688 C 13.75 14.320312 13.988281 13.800781 13.988281 13.238281 Z M 12.550781 14.601562 L 13.109375 16.800781 L 10.949219 16.800781 L 11.511719 14.601562 C 11.550781 14.441406 11.46875 14.238281 11.351562 14.160156 C 11.03125 13.960938 10.828125 13.601562 10.828125 13.199219 C 10.828125 12.519531 11.351562 12 12.03125 12 C 12.710938 12 13.230469 12.519531 13.230469 13.199219 C 13.230469 13.601562 13.03125 13.960938 12.710938 14.160156 C 12.589844 14.28125 12.511719 14.441406 12.550781 14.601562 Z M 12.550781 14.601562"/>
</svg>

<svg xmlns="http://www.w3.org/2000/svg" width="32" height="32" viewBox="0 0 24 24">
    <path d="M18.95 8.719c-1.04-1.16-2.278-1.758-3.56-1.758-1.359 0-2.64.8-3.402 2.117-.758-1.316-2-2.117-3.36-2.117-1.276 0-2.48.598-3.558 1.758-1.242 1.36-1.96 4.48.52 6.84 1.082 1.043 6.12 6.28 6.16 6.363.078.078.16.117.281.117.117 0 .2-.039.278-.117.043-.043 5.082-5.281 6.16-6.363 2.402-2.36 1.722-5.48.48-6.84zm-1.04 6.242c-.96.918-4.762 4.918-5.879 6.078-1.12-1.16-4.96-5.16-5.922-6.078C4.07 13 4.63 10.398 5.672 9.28c.879-1 1.879-1.52 2.957-1.52 1.281 0 2.441.88 3 2.36.043.117.2.238.36.238.16 0 .32-.078.363-.238.597-1.48 1.757-2.402 3.039-2.402 1.078 0 2.078.52 2.96 1.52 1.04 1.12 1.598 3.761-.44 5.722zm0 0"/>
    <path d="M19.95 7.8a6.831 6.831 0 0 0-1.16-1.038V5.199c0-.238-.161-.398-.4-.398h-1.6c-.24 0-.4.16-.4.398v.48c-1.64-.32-3.199.16-4.402 1.243a4.974 4.974 0 0 0-3.36-1.32c-.198 0-.398 0-.597.039V2.76c0-.202.2-.363.399-.363h7.718c.16 0 .282.16.282.364v.437c0 .242.16.403.398.403h1.602c.242 0 .398-.16.398-.403v-.437c0-1.563-1.2-2.762-2.68-2.762H8.43C6.91 0 5.629 1.238 5.672 2.762V6.52c-.563.32-1.082.761-1.563 1.28-1.96 2.079-2.28 6.04.563 8.72 1.078 1.039 6.039 6.28 6.117 6.32l.961 1.039c.078.082.16.121.281.121.117 0 .2-.04.278-.121l1-1.04c.043-.038 5.043-5.28 6.082-6.32 2.757-2.68 2.437-6.597.558-8.718zm-1.079 8.16c-1.082 1.08-6.121 6.321-6.16 6.36l-.68.72-.68-.72c-.081-.082-5.081-5.32-6.16-6.36-2.48-2.32-2.203-5.76-.52-7.6.477-.52 1-.962 1.56-1.282.12-.078.199-.2.199-.36V2.763C6.43 1.68 7.352.8 8.43.8h7.718c1.043 0 1.883.84 1.883 1.96v.04h-.8v-.04c0-.64-.481-1.16-1.083-1.16H8.43c-.64 0-1.2.52-1.2 1.16v3.36c0 .117.079.238.16.32.079.079.2.118.32.079.321-.079.642-.122.919-.122 1.121 0 2.242.48 3.082 1.364.078.078.16.117.277.117.121 0 .203-.04.282-.117.878-.883 1.96-1.364 3.12-1.364.438 0 .88.082 1.32.204.118 0 .24 0 .36-.082.121-.079.16-.2.16-.32v-.598h.801V7c0 .121.04.238.16.32.438.282.84.64 1.2 1.04 1.64 1.84 1.918 5.242-.52 7.6zm0 0"/>
    <path d="M13.988 13.238c0-1.117-.879-2-2-2-1.117 0-2 .883-2 2 0 .563.242 1.082.64 1.442l-.597 2.441c0 .117 0 .238.078.32.082.118.2.16.32.16h3.2c.121 0 .242-.042.242-.12.078-.122.117-.243.078-.36l-.597-2.441c.398-.36.636-.88.636-1.442zm-1.437 1.364l.558 2.199h-2.16l.563-2.2a.453.453 0 0 0-.16-.44c-.32-.2-.524-.56-.524-.962 0-.68.524-1.199 1.203-1.199.68 0 1.2.52 1.2 1.2 0 .402-.2.76-.52.96-.121.121-.2.281-.16.442zm0 0"/>
</svg>
